Gurmukhi/0A47.svg

<svg enable-background="new 0 0 336 592" viewBox="0 0 336 592" xmlns="http://www.w3.org/2000/svg"><path d="m187.856369 128.159988c10.39473 11.135819 16.894577 24.29123 23.140595 37.540116 5.744812 12.185699 11.021545 24.592056 16.505065 36.90094.538056 1.207794 1.230225 2.380188.703415 4.425644-4.488754.755355-9.243866.464553-13.955764.173782-2.448548-.151093-2.752808-2.651077-3.530014-4.401016-4.86232-10.948136-9.673813-21.922364-15.302247-32.504364-2.263183-4.255005-4.820358-8.357361-7.327529-12.478195-9.555329-15.705292-23.987717-22.325013-41.907944-22.388428-6.824509-.024155-13.649155-.052796-20.47358-.030426-4.003257.013122-6.257042-1.624375-6.25206-5.911743.005982-5.144524-.14566-10.289811-.274498-15.433632-.052856-2.110199.50985-3.644028 2.962693-3.658356 17.897262-.104591 36.0363-2.036163 52.652176 7.265869 4.854049 2.717423 8.999466 6.259171 13.059692 10.499809z"/><path d="m235.768265 262.258026c4.344711-1.203186 7.569626-.060181 9.934219 3.265656 2.03331 2.859924 1.941361 5.879516.257553 8.873748-1.837173 3.266938-4.79689 4.409394-8.364853 4.129975-3.991195-.312531-6.447006-2.790619-7.240417-6.430817-.95285-4.371643.941345-7.710083 5.413498-9.838562z"/><path d="m122.21106 264.891541c2.800529 5.467346 1.966072 9.864929-2.040917 12.428985-3.4906 2.233612-7.990478 1.614502-10.811409-1.487488-3.045036-3.348419-2.951515-8.433136.214562-11.665893 3.306442-3.376068 7.7089-3.225647 12.637764.724396z"/><path d="m118.357353 297.318024c-1.487098 5.081817-4.88681 6.995758-9.521171 6.470642-4.062752-.460358-7.204789-4.336853-7.110703-8.326386.102348-4.339996 2.361527-7.175384 6.520355-8.301422 5.870972-1.58963 10.244248 2.676148 10.111519 10.157166z"/><path d="m180.790161 236.070709c-4.962997 2.002335-8.597244.689865-10.99501-3.49527-2.182221-3.808975-1.444565-7.546096 1.756607-10.395507 3.010299-2.679551 6.603531-3.038315 10.143829-.820511 5.206207 3.261398 4.927704 10.078872-.905426 14.711288z"/><path d="m249.141968 302.204742c-5.948227 3.868592-11.615448.191407-13.104096-3.976501-1.691238-4.735107.907486-9.638184 5.819092-10.996094 3.826004-1.0578 7.065735.173218 9.124436 3.419312 2.552078 4.023987 1.792511 7.922271-1.839432 11.553283z"/><path d="m232.179443 339.148682c1.582703 5.671051-.354049 10.07611-4.81813 11.688079-4.115296 1.485993-8.344864-.280456-10.42276-4.352996-1.950394-3.822632-.627182-8.566559 3.022583-10.836396 3.898285-2.424408 8.411468-1.247192 12.218307 3.501313z"/><path d="m224.902267 239.684631c5.067048.529831 7.803162 3.319336 8.106461 7.770615.268631 3.942032-1.72905 7.161987-5.69812 8.446548-4.079865 1.320435-7.58696.194275-10.02095-3.459259-3.557846-5.340423.074188-11.736587 7.612609-12.757904z"/><path d="m118.201096 312.573212c4.272659 1.867767 6.388732 4.878723 5.834152 9.145263-.521935 4.015442-3.115822 6.549256-7.114365 7.289673-3.654281.676636-6.45665-.956207-8.481018-3.920196-1.99633-2.922913-1.81604-6.058503-.00563-8.888062 2.154091-3.366669 5.345146-4.800049 9.766861-3.626678z"/><path d="m245.944122 316.375549c2.379166 4.791291 1.077668 8.445954-2.662216 11.215027-3.351852 2.481812-6.893097 2.082886-10.043136-.517273-3.377259-2.78775-3.908387-6.327789-2.187333-10.276977 2.247773-5.157837 11.194596-6.843048 14.892685-.420777z"/><path d="m133.082245 350.562653c-4.506409 1.473785-7.949249.570831-10.420624-3.123597-2.082474-3.113037-1.86068-6.376464.054535-9.389556 2.011215-3.164155 5.208496-3.957764 8.765915-3.416932 3.819611.58078 5.889664 3.240204 6.563492 6.665589.782318 3.976959-.909622 7.148254-4.963318 9.264496z"/><path d="m201.335144 348.629272c5.999497.409302 9.41687 3.168 9.478424 7.738251.056992 4.230377-2.022949 7.32367-6.117172 8.654511-4.232529 1.375824-8.336685-.670472-10.224411-4.824189-2.179459-4.795654.591095-9.722991 6.863159-11.568573z"/><path d="m194.156464 231.614075c2.925171-5.570053 6.786071-7.295121 11.502761-5.464661 3.845368 1.49231 5.878983 5.646072 4.788743 9.78125-1.146058 4.346909-4.969803 6.917419-9.404557 6.322189-4.677292-.627777-7.340744-4.517837-6.886947-10.638778z"/><path d="m177.76355 370.816742c-4.75325-.064423-7.684937-2.31012-8.797287-6.422485-.939011-3.471528.115921-6.63501 3.111099-8.853424 2.964874-2.195984 6.135819-2.372712 9.354874-.511689 3.300461 1.90802 4.286422 4.891266 3.870926 8.504517-.492783 4.285278-3.254563 6.313385-7.539612 7.283081z"/><path d="m122.916756 242.990204c4.328254-3.772659 8.58628-4.378082 11.861061-1.725433 3.123428 2.530029 4.414047 5.77687 2.802337 9.729507-1.671951 4.100464-4.883926 5.723434-9.143539 5.274521-5.938171-.625778-8.38221-6.226761-5.519859-13.278595z"/><path d="m144.426682 229.904572c3.79689-4.425385 8.317504-5.54863 11.969772-3.108857 3.606567 2.409256 4.780334 5.862976 3.492584 9.97667-1.187408 3.793121-5.43248 6.122512-9.542282 5.468887-5.077744-.807587-7.352478-5.252838-5.920074-12.3367z"/><path d="m148.744537 364.810059c-4.493744-2.331818-5.831573-5.852204-4.881057-10.187622.743438-3.391083 3.045715-5.421723 6.557998-5.897858 3.805634-.51593 6.918289.611755 8.872467 4.067413 1.723008 3.046875 1.353577 6.098664-.51593 8.927704-2.339676 3.540497-5.786209 4.105103-10.033478 3.090363z"/></svg>

<svg version="1.1" id="Layer_1" xmlns="http://www.w3.org/2000/svg" xmlns:xlink="http://www.w3.org/1999/xlink" x="0px" y="0px"
	 width="100%" viewBox="0 0 336 592" enable-background="new 0 0 336 592" xml:space="preserve">
<path fill="#000000" opacity="1.000000" stroke="none" 
	d="
M187.856369,128.159988 
	C198.251099,139.295807 204.750946,152.451218 210.996964,165.700104 
	C216.741776,177.885803 222.018509,190.292160 227.502029,202.601044 
	C228.040085,203.808838 228.732254,204.981232 228.205444,207.026688 
	C223.716690,207.782043 218.961578,207.491241 214.249680,207.200470 
	C211.801132,207.049377 211.496872,204.549393 210.719666,202.799454 
	C205.857346,191.851318 201.045853,180.877090 195.417419,170.295090 
	C193.154236,166.040085 190.597061,161.937729 188.089890,157.816895 
	C178.534561,142.111603 164.102173,135.491882 146.181946,135.428467 
	C139.357437,135.404312 132.532791,135.375671 125.708366,135.398041 
	C121.705109,135.411163 119.451324,133.773666 119.456306,129.486298 
	C119.462288,124.341774 119.310646,119.196487 119.181808,114.052666 
	C119.128952,111.942467 119.691658,110.408638 122.144501,110.394310 
	C140.041763,110.289719 158.180801,108.358147 174.796677,117.660179 
	C179.650726,120.377602 183.796143,123.919350 187.856369,128.159988 
z"/>
<path fill="#000000" opacity="1.000000" stroke="none" 
	d="
M235.768265,262.258026 
	C240.112976,261.054840 243.337891,262.197845 245.702484,265.523682 
	C247.735794,268.383606 247.643845,271.403198 245.960037,274.397430 
	C244.122864,277.664368 241.163147,278.806824 237.595184,278.527405 
	C233.603989,278.214874 231.148178,275.736786 230.354767,272.096588 
	C229.401917,267.724945 231.296112,264.386505 235.768265,262.258026 
z"/>
<path fill="#000000" opacity="1.000000" stroke="none" 
	d="
M122.211060,264.891541 
	C125.011589,270.358887 124.177132,274.756470 120.170143,277.320526 
	C116.679543,279.554138 112.179665,278.935028 109.358734,275.833038 
	C106.313698,272.484619 106.407219,267.399902 109.573296,264.167145 
	C112.879738,260.791077 117.282196,260.941498 122.211060,264.891541 
z"/>
<path fill="#000000" opacity="1.000000" stroke="none" 
	d="
M118.357353,297.318024 
	C116.870255,302.399841 113.470543,304.313782 108.836182,303.788666 
	C104.773430,303.328308 101.631393,299.451813 101.725479,295.462280 
	C101.827827,291.122284 104.087006,288.286896 108.245834,287.160858 
	C114.116806,285.571228 118.490082,289.837006 118.357353,297.318024 
z"/>
<path fill="#000000" opacity="1.000000" stroke="none" 
	d="
M180.790161,236.070709 
	C175.827164,238.073044 172.192917,236.760574 169.795151,232.575439 
	C167.612930,228.766464 168.350586,225.029343 171.551758,222.179932 
	C174.562057,219.500381 178.155289,219.141617 181.695587,221.359421 
	C186.901794,224.620819 186.623291,231.438293 180.790161,236.070709 
z"/>
<path fill="#000000" opacity="1.000000" stroke="none" 
	d="
M249.141968,302.204742 
	C243.193741,306.073334 237.526520,302.396149 236.037872,298.228241 
	C234.346634,293.493134 236.945358,288.590057 241.856964,287.232147 
	C245.682968,286.174347 248.922699,287.405365 250.981400,290.651459 
	C253.533478,294.675446 252.773911,298.573730 249.141968,302.204742 
z"/>
<path fill="#000000" opacity="1.000000" stroke="none" 
	d="
M232.179443,339.148682 
	C233.762146,344.819733 231.825394,349.224792 227.361313,350.836761 
	C223.246017,352.322754 219.016449,350.556305 216.938553,346.483765 
	C214.988159,342.661133 216.311371,337.917206 219.961136,335.647369 
	C223.859421,333.222961 228.372604,334.400177 232.179443,339.148682 
z"/>
<path fill="#000000" opacity="1.000000" stroke="none" 
	d="
M224.902267,239.684631 
	C229.969315,240.214462 232.705429,243.003967 233.008728,247.455246 
	C233.277359,251.397278 231.279678,254.617233 227.310608,255.901794 
	C223.230743,257.222229 219.723648,256.096069 217.289658,252.442535 
	C213.731812,247.102112 217.363846,240.705948 224.902267,239.684631 
z"/>
<path fill="#000000" opacity="1.000000" stroke="none" 
	d="
M118.201096,312.573212 
	C122.473755,314.440979 124.589828,317.451935 124.035248,321.718475 
	C123.513313,325.733917 120.919426,328.267731 116.920883,329.008148 
	C113.266602,329.684784 110.464233,328.051941 108.439865,325.087952 
	C106.443535,322.165039 106.623825,319.029449 108.434235,316.199890 
	C110.588326,312.833221 113.779381,311.399841 118.201096,312.573212 
z"/>
<path fill="#000000" opacity="1.000000" stroke="none" 
	d="
M245.944122,316.375549 
	C248.323288,321.166840 247.021790,324.821503 243.281906,327.590576 
	C239.930054,330.072388 236.388809,329.673462 233.238770,327.073303 
	C229.861511,324.285553 229.330383,320.745514 231.051437,316.796326 
	C233.299210,311.638489 242.246033,309.953278 245.944122,316.375549 
z"/>
<path fill="#000000" opacity="1.000000" stroke="none" 
	d="
M133.082245,350.562653 
	C128.575836,352.036438 125.132996,351.133484 122.661621,347.439056 
	C120.579147,344.326019 120.800941,341.062592 122.716156,338.049500 
	C124.727371,334.885345 127.924652,334.091736 131.482071,334.632568 
	C135.301682,335.213348 137.371735,337.872772 138.045563,341.298157 
	C138.827881,345.275116 137.135941,348.446411 133.082245,350.562653 
z"/>
<path fill="#000000" opacity="1.000000" stroke="none" 
	d="
M201.335144,348.629272 
	C207.334641,349.038574 210.752014,351.797272 210.813568,356.367523 
	C210.870560,360.597900 208.790619,363.691193 204.696396,365.022034 
	C200.463867,366.397858 196.359711,364.351562 194.471985,360.197845 
	C192.292526,355.402191 195.063080,350.474854 201.335144,348.629272 
z"/>
<path fill="#000000" opacity="1.000000" stroke="none" 
	d="
M194.156464,231.614075 
	C197.081635,226.044022 200.942535,224.318954 205.659225,226.149414 
	C209.504593,227.641724 211.538208,231.795486 210.447968,235.930664 
	C209.301910,240.277573 205.478165,242.848083 201.043411,242.252853 
	C196.366119,241.625076 193.702667,237.735016 194.156464,231.614075 
z"/>
<path fill="#000000" opacity="1.000000" stroke="none" 
	d="
M177.763550,370.816742 
	C173.010300,370.752319 170.078613,368.506622 168.966263,364.394257 
	C168.027252,360.922729 169.082184,357.759247 172.077362,355.540833 
	C175.042236,353.344849 178.213181,353.168121 181.432236,355.029144 
	C184.732697,356.937164 185.718658,359.920410 185.303162,363.533661 
	C184.810379,367.818939 182.048599,369.847046 177.763550,370.816742 
z"/>
<path fill="#000000" opacity="1.000000" stroke="none" 
	d="
M122.916756,242.990204 
	C127.245010,239.217545 131.503036,238.612122 134.777817,241.264771 
	C137.901245,243.794800 139.191864,247.041641 137.580154,250.994278 
	C135.908203,255.094742 132.696228,256.717712 128.436615,256.268799 
	C122.498444,255.643021 120.054405,250.042038 122.916756,242.990204 
z"/>
<path fill="#000000" opacity="1.000000" stroke="none" 
	d="
M144.426682,229.904572 
	C148.223572,225.479187 152.744186,224.355942 156.396454,226.795715 
	C160.003021,229.204971 161.176788,232.658691 159.889038,236.772385 
	C158.701630,240.565506 154.456558,242.894897 150.346756,242.241272 
	C145.269012,241.433685 142.994278,236.988434 144.426682,229.904572 
z"/>
<path fill="#000000" opacity="1.000000" stroke="none" 
	d="
M148.744537,364.810059 
	C144.250793,362.478241 142.912964,358.957855 143.863480,354.622437 
	C144.606918,351.231354 146.909195,349.200714 150.421478,348.724579 
	C154.227112,348.208649 157.339767,349.336334 159.293945,352.791992 
	C161.016953,355.838867 160.647522,358.890656 158.778015,361.719696 
	C156.438339,365.260193 152.991806,365.824799 148.744537,364.810059 
z"/>
</svg>
